static/img/showcase/dcm_logo.svg

<svg fill="none" height="44" viewBox="0 0 45 44" width="45" xmlns="http://www.w3.org/2000/svg"><path d="m43.4622 12.1141-11.5239-11.34058c-.5027-.49456-1.185-.77352-1.8965-.77352h-16.2982c-.7115 0-1.3938.27808-1.8965.77352l-11.519447 11.33528c-.4106191.4039-.435398 1.0437-.073451 1.4766.023009.0273.047788.0537.073451.0801l6.694687 6.5877c.89558.997.89469 2.5001-.00354 3.4962l-6.691147 6.5851c-.025663.0255-.049557.0501-.071681.0774-.363717.4321-.3398231 1.0736.071681 1.4784l11.519447 11.3362c.5027.4945 1.185.7735 1.8965.7735h16.2982c.7115 0 1.3938-.2781 1.8965-.7735l11.5239-11.3406c.5026-.4945.7858-1.1669.7858-1.8665v-16.0388c0-.7005-.2823-1.3711-.7858-1.8665zm-12.3098 28.6985c0 1.1757-1.4442 1.7653-2.2893.9337l-16.2301-15.972-1.9381-1.9078c-1.04778-1.0305-1.04778-2.7025 0-3.7339l18.1682-17.8798c.8451-.8316 2.2893-.24288 2.2893.93368v37.62702z" fill="#2c44da"/></svg>

<svg width="45" height="44" viewBox="0 0 45 44" fill="none" xmlns="http://www.w3.org/2000/svg">
<path d="M43.4622 12.1141L31.9383 0.77352C31.4356 0.27896 30.7533 0 30.0418 0H13.7436C13.0321 0 12.3498 0.27808 11.8471 0.77352L0.327653 12.1088C-0.0829661 12.5127 -0.107745 13.1525 0.254202 13.5854C0.277211 13.6127 0.30199 13.6391 0.327653 13.6655L7.02234 20.2532C7.91792 21.2502 7.91703 22.7533 7.0188 23.7494L0.327653 30.3345C0.30199 30.36 0.278096 30.3846 0.255972 30.4119C-0.107745 30.844 -0.0838511 31.4855 0.327653 31.8903L11.8471 43.2265C12.3498 43.721 13.0321 44 13.7436 44H30.0418C30.7533 44 31.4356 43.7219 31.9383 43.2265L43.4622 31.8859C43.9648 31.3914 44.248 30.719 44.248 30.0194V13.9806C44.248 13.2801 43.9657 12.6095 43.4622 12.1141ZM31.1524 40.8126C31.1524 41.9883 29.7082 42.5779 28.8631 41.7463L12.633 25.7743L10.6949 23.8665C9.64712 22.836 9.64712 21.164 10.6949 20.1326L28.8631 2.2528C29.7082 1.4212 31.1524 2.00992 31.1524 3.18648V40.8135V40.8126Z" fill="#2C44DA"/>
</svg>
